X: 17
T: the Field in the Forest
C: Adam Broome
R: jig
Z: 2018 John Chambers <jc:trillian.mit.edu>
M: 6/8
L: 1/8
K: F
|: "F"FAc f2g | aba gfd | cAG FGA |1,3 "Bb"D2B- BAG |2,4 G2F- F3 :|
|: "F"FAc "C7"G3 | "F"FAc "C7"G3 | "F"FGA "C7"BAG |1,3 "F"A2c- c3 :|2 "F"AF- F3 :|4 "F"F6 |]

%%sep 1 1 500

